_inc/systems/logos/auto-favorites.svg

<?xml version="1.0" encoding="utf-8"?>
<svg viewBox="0 0 200 40" xmlns="http://www.w3.org/2000/svg">
  <path d="M 55.196 18.45 L 54.396 22.909 L 49.595 22.909 L 48.41 29.851 L 42.779 29.851 L 46.039 11.149 L 57.596 11.149 L 56.026 15.937 L 50.81 15.937 L 50.395 18.45 L 55.196 18.45 Z M 61.182 26.888 L 60.027 29.851 L 54.099 29.851 L 61.893 11.149 L 70.606 11.149 L 71.91 29.851 L 65.954 29.851 L 65.835 26.888 L 61.182 26.888 Z M 65.391 16.894 L 65.094 16.894 L 63.019 22.131 L 65.391 22.131 L 65.391 16.894 Z M 81.334 23.028 L 85.809 11.149 L 91.765 11.149 L 84.149 29.851 L 75.911 29.851 L 74.814 11.149 L 81.067 11.149 L 81.067 23.028 L 81.334 23.028 Z M 97.9 17.403 L 97.9 17.403 L 96.536 25.183 L 98.878 25.183 L 98.878 25.183 C 99.648 25.183 100.221 25.091 100.597 24.904 L 100.597 24.904 L 100.597 24.904 C 100.972 24.711 101.219 24.276 101.337 23.598 L 101.337 23.598 L 102.701 15.817 L 100.33 15.817 L 100.33 15.817 C 99.579 15.817 99.016 15.91 98.64 16.096 L 98.64 16.096 L 98.64 16.096 C 98.265 16.289 98.018 16.724 97.9 17.403 Z M 101.308 10.7 L 101.308 10.7 L 101.308 10.7 C 103.817 10.7 105.605 11.196 106.672 12.186 L 106.672 12.186 L 106.672 12.186 C 107.738 13.17 108.272 14.69 108.272 16.745 L 108.272 16.745 L 108.272 16.745 C 108.272 18.799 107.949 20.951 107.304 23.198 L 107.304 23.198 L 107.304 23.198 C 106.665 25.44 105.647 27.181 104.252 28.425 L 104.252 28.425 L 104.252 28.425 C 102.862 29.675 100.827 30.3 98.147 30.3 L 98.147 30.3 L 98.147 30.3 C 95.473 30.3 93.603 29.809 92.536 28.824 L 92.536 28.824 L 92.536 28.824 C 91.469 27.833 90.936 26.31 90.936 24.256 L 90.936 24.256 L 90.936 24.256 C 90.936 23.278 91.074 21.989 91.35 20.385 L 91.35 20.385 L 91.35 20.385 C 91.627 18.777 91.992 17.39 92.447 16.226 L 92.447 16.226 L 92.447 16.226 C 92.901 15.055 93.514 14.042 94.284 13.184 L 94.284 13.184 L 94.284 13.184 C 95.766 11.528 98.107 10.7 101.308 10.7 Z M 122.586 23.627 L 124.541 29.851 L 118.348 29.851 L 116.985 24.286 L 115.769 24.286 L 114.821 29.851 L 109.191 29.851 L 112.451 11.149 L 121.341 11.149 L 121.341 11.149 C 124.719 11.149 126.408 12.675 126.408 15.728 L 126.408 15.728 L 126.408 15.728 C 126.408 16.984 126.221 18.181 125.845 19.318 L 125.845 19.318 L 125.845 19.318 C 125.154 21.473 124.067 22.909 122.586 23.627 L 122.586 23.627 Z M 118.348 15.937 L 117.222 15.937 L 116.57 19.677 L 117.873 19.677 L 117.873 19.677 C 118.546 19.677 119.052 19.604 119.395 19.458 L 119.395 19.458 L 119.395 19.458 C 119.743 19.305 119.981 18.876 120.106 18.171 L 120.106 18.171 L 120.106 18.171 C 120.238 17.46 120.304 17.024 120.304 16.864 L 120.304 16.864 L 120.304 16.864 C 120.304 16.465 120.152 16.209 119.85 16.096 L 119.85 16.096 L 119.85 16.096 C 119.54 15.99 119.039 15.937 118.348 15.937 L 118.348 15.937 Z M 132.335 29.851 L 126.705 29.851 L 129.965 11.149 L 135.595 11.149 L 132.335 29.851 Z M 151.539 11.149 L 150.68 15.937 L 146.59 15.937 L 144.189 29.851 L 138.559 29.851 L 140.959 15.937 L 136.899 15.937 L 137.759 11.149 L 151.539 11.149 Z M 163.897 18.45 L 163.126 22.789 L 157.495 22.789 L 157.11 25.063 L 164.015 25.063 L 163.185 29.851 L 150.65 29.851 L 153.91 11.149 L 166.297 11.149 L 164.756 15.937 L 158.681 15.937 L 158.266 18.45 L 163.897 18.45 Z M 165.823 29.522 L 165.823 29.522 L 167.483 24.585 L 167.483 24.585 C 169.142 25.043 170.663 25.272 172.046 25.272 L 172.046 25.272 L 172.046 25.272 C 173.429 25.272 174.546 25.213 175.395 25.094 L 175.395 25.094 L 175.632 23.598 L 173.173 23.358 L 173.173 23.358 C 171.296 23.178 169.965 22.749 169.182 22.071 L 169.182 22.071 L 169.182 22.071 C 168.404 21.393 168.016 20.436 168.016 19.198 L 168.016 19.198 L 168.016 19.198 C 168.016 18.659 168.075 18.061 168.194 17.403 L 168.194 17.403 L 168.194 17.403 C 168.648 14.849 169.471 13.094 170.663 12.136 L 170.663 12.136 L 170.663 12.136 C 171.862 11.179 173.716 10.7 176.225 10.7 L 176.225 10.7 L 176.225 10.7 C 178.734 10.7 180.946 10.95 182.863 11.448 L 182.863 11.448 L 181.322 16.236 L 181.322 16.236 C 179.603 15.937 178.22 15.787 177.173 15.787 L 177.173 15.787 L 177.173 15.787 C 176.126 15.787 175.237 15.837 174.506 15.937 L 174.506 15.937 L 174.269 17.403 L 176.255 17.613 L 176.255 17.613 C 178.269 17.832 179.702 18.318 180.551 19.068 L 180.551 19.068 L 180.551 19.068 C 181.401 19.814 181.826 20.814 181.826 22.071 L 181.826 22.071 L 181.826 22.071 C 181.826 23.348 181.549 24.664 180.996 26.021 L 180.996 26.021 L 180.996 26.021 C 180.719 26.719 180.416 27.305 180.087 27.777 L 180.087 27.777 L 180.087 27.777 C 179.764 28.242 179.349 28.638 178.842 28.964 L 178.842 28.964 L 178.842 28.964 C 178.342 29.296 177.884 29.545 177.469 29.711 L 177.469 29.711 L 177.469 29.711 C 177.054 29.884 176.531 30.011 175.899 30.091 L 175.899 30.091 L 175.899 30.091 C 174.97 30.23 173.834 30.3 172.491 30.3 L 172.491 30.3 L 172.491 30.3 C 170.041 30.3 167.818 30.04 165.823 29.522 Z" style="white-space: pre; fill: rgb(255, 255, 255);"/>
  <path d="M 27.521 9.7 C 27.305 9.7 27.089 9.869 26.926 10.206 L 24.709 14.739 C 24.38 15.414 23.507 16.051 22.772 16.159 L 17.82 16.886 C 17.083 16.994 16.917 17.512 17.45 18.036 L 21.035 21.564 C 21.568 22.09 21.901 23.124 21.775 23.863 L 20.927 28.848 C 20.835 29.384 21.039 29.7 21.41 29.7 C 21.58 29.693 21.747 29.645 21.896 29.559 L 26.327 27.204 C 26.658 27.03 27.09 26.945 27.522 26.945 C 27.957 26.945 28.393 27.031 28.719 27.204 L 33.152 29.559 C 33.33 29.654 33.498 29.7 33.637 29.7 C 34.009 29.7 34.211 29.384 34.121 28.848 L 33.272 23.863 C 33.148 23.124 33.481 22.089 34.011 21.564 L 37.598 18.036 C 38.13 17.512 37.965 16.994 37.227 16.886 L 32.273 16.161 C 31.538 16.052 30.666 15.415 30.337 14.74 L 28.122 10.206 C 27.955 9.869 27.741 9.7 27.521 9.7 Z" style="fill: rgb(255, 255, 255);"/>
</svg>

<svg xmlns="http://www.w3.org/2000/svg" viewBox="0 0 200 40"><path d="m55.2 18.45-.8 4.46h-4.8l-1.19 6.94h-5.63l3.26-18.7H57.6l-1.57 4.79H50.8l-.41 2.51zm5.98 8.44-1.15 2.96H54.1l7.8-18.7h8.7l1.31 18.7h-5.96l-.12-2.96zm4.21-10h-.3l-2.07 5.24h2.37zm15.94 6.14 4.48-11.88h5.95l-7.61 18.7H75.9l-1.1-18.7h6.26v11.88zM97.9 17.4l-1.36 7.78h2.34q1.15 0 1.72-.28.56-.28.74-1.3l1.36-7.78h-2.37q-1.12 0-1.69.28t-.74 1.3m3.4-6.7q3.77 0 5.37 1.49 1.6 1.47 1.6 4.56 0 3.07-.97 6.45a10.7 10.7 0 0 1-3.05 5.23q-2.08 1.87-6.1 1.87t-5.61-1.48-1.6-4.56q0-1.47.41-3.87.41-2.42 1.1-4.16a10 10 0 0 1 1.83-3.05q2.23-2.48 7.03-2.48m21.29 12.93 1.95 6.22h-6.2l-1.36-5.56h-1.21l-.95 5.56h-5.63l3.26-18.7h8.9q5.06 0 5.06 4.58 0 1.88-.56 3.59-1.04 3.23-3.26 4.3m-4.24-7.7h-1.13l-.65 3.75h1.3q1.02 0 1.52-.22.53-.23.72-1.29.2-1.07.2-1.3 0-.6-.46-.77-.46-.16-1.5-.16m13.99 13.92h-5.64l3.27-18.7h5.63zm19.2-18.7-.86 4.79h-4.09l-2.4 13.91h-5.63l2.4-13.91h-4.06l.86-4.8zm12.36 7.3-.77 4.34h-5.63l-.39 2.27h6.9l-.82 4.8h-12.54l3.26-18.71h12.39l-1.54 4.79h-6.08l-.41 2.51zm1.92 11.07 1.66-4.93q2.49.68 4.57.68 2.07 0 3.34-.18l.24-1.5-2.46-.23q-2.8-.27-3.99-1.29a3.6 3.6 0 0 1-1.16-2.87q0-.81.17-1.8.69-3.82 2.47-5.26 1.8-1.44 5.56-1.44 3.77 0 6.64.75l-1.54 4.79q-2.58-.45-4.15-.45-1.56 0-2.66.15l-.24 1.46 1.98.21q3.03.32 4.3 1.46a3.8 3.8 0 0 1 1.28 3q0 1.92-.83 3.95-.42 1.05-.91 1.76-.49.7-1.25 1.18-.75.51-1.37.75-.63.26-1.57.38-1.4.21-3.4.21-3.69 0-6.68-.78" style="white-space:pre;fill:#fff"/><path d="M27.52 9.7q-.33 0-.6.5l-2.21 4.54a3 3 0 0 1-1.94 1.42l-4.95.73c-.74.1-.9.62-.37 1.15l3.59 3.52c.53.53.86 1.56.73 2.3l-.84 4.99c-.1.53.1.85.48.85q.26 0 .49-.14l4.43-2.36c.33-.17.76-.25 1.2-.25s.86.08 1.19.25l4.43 2.36q.28.15.49.14c.37 0 .57-.32.48-.85l-.85-4.99c-.12-.74.21-1.77.74-2.3l3.59-3.52c.53-.53.37-1.05-.37-1.15l-4.96-.73a3 3 0 0 1-1.93-1.42l-2.22-4.53q-.26-.51-.6-.51" style="fill:#fff"/></svg>
